concordia/static/img/homepage-tag.svg

<?xml version="1.0" encoding="UTF-8"?>
<svg width="200px" height="200px" viewBox="0 0 200 200" version="1.1" xmlns="http://www.w3.org/2000/svg" xmlns:xlink="http://www.w3.org/1999/xlink">
    <!-- Generator: Sketch 51.2 (57519) - http://www.bohemiancoding.com/sketch -->
    <title>Group 9</title>
    <desc>Created with Sketch.</desc>
    <defs></defs>
    <g id="Wireframes" stroke="none" stroke-width="1" fill="none" fill-rule="evenodd">
        <g id="CHC-Home" transform="translate(-541.000000, -1435.000000)" fill-rule="nonzero">
            <g id="Group-10" transform="translate(541.000000, 1435.000000)">
                <g id="Group-9">
                    <circle id="Oval-2" fill="#FC4C02" cx="100" cy="100" r="100"></circle>
                    <path d="M138.001301,50 L108.524907,50.9508514 C103.96082,51.331192 99.7770733,53.2328949 96.5441784,56.4657898 L54.1362038,98.8737644 C48.6212654,104.388703 48.6212654,113.326706 54.1362038,118.841645 L81.1403849,145.845826 C83.802769,148.50821 87.4160045,150.029572 91.02924,150.029572 C94.6424755,150.029572 98.255711,148.69838 100.918095,145.845826 L143.32607,103.437851 C146.558965,100.204956 148.460667,96.0212101 148.841008,91.2669528 L149.98203,61.9807282 C150.1722,58.7478333 148.841008,55.7051087 146.558965,53.4230652 C144.276921,51.1410217 141.234196,50 138.001301,50 Z M121.456486,91.4571231 C114.420186,91.4571231 108.715077,85.7520144 108.715077,78.7157137 C108.715077,71.679413 114.420186,65.9743043 121.456486,65.9743043 C128.492787,65.9743043 134.197896,71.679413 134.197896,78.7157137 C134.197896,85.7520144 128.492787,91.4571231 121.456486,91.4571231 Z" id="Shape" fill="#FFFFFF"></path>
                </g>
            </g>
        </g>
    </g>
</svg>

<svg width="200" height="200" xmlns="http://www.w3.org/2000/svg"><g fill="none"><circle fill="#FC4C02" cx="100" cy="100" r="100"/><path d="M138.001 50l-29.476.95c-4.564.381-8.748 2.283-11.98 5.516l-42.41 42.408c-5.515 5.515-5.515 14.453 0 19.968l27.004 27.004c2.663 2.662 6.276 4.184 9.89 4.184 3.612 0 7.226-1.332 9.888-4.184l42.408-42.408c3.233-3.233 5.135-7.417 5.515-12.171l1.141-29.286c.19-3.233-1.141-6.276-3.423-8.558S141.234 50 138.001 50zm-16.545 41.457c-7.036 0-12.74-5.705-12.74-12.741 0-7.037 5.704-12.742 12.74-12.742 7.037 0 12.742 5.705 12.742 12.742 0 7.036-5.705 12.741-12.742 12.741z" fill="#FFF"/></g></svg>
